pkgs/clan-app/ui/icons/user.svg

<svg xmlns="http://www.w3.org/2000/svg" width="48" height="48" fill="currentColor"><path fill-rule="evenodd" d="M18.8 0h9.6v9.6h-9.6zm-7.2 12h24v4.8h-4.8V48H26V33.6h-4.8V48h-4.8V16.8h-4.8zM6.8 7.2V12h4.8V7.2zm0 0H2V2.4h4.8zm33.6 0V12h-4.8V7.2zm0 0V2.4h4.8v4.8z" clip-rule="evenodd"/></svg>

<svg xmlns="http://www.w3.org/2000/svg" width="48" height="48" viewBox="0 0 48 48" fill="currentColor">
    <path fill-rule="evenodd" clip-rule="evenodd" d="M18.8 0H28.4V9.6H18.8V0ZM11.6 12H35.6V16.8H30.8V33.6V48H26V33.6H21.2V48H16.4V33.6V16.8H11.6V12ZM6.8 7.2V12H11.6V7.2H6.8ZM6.8 7.2L2 7.2V2.4H6.8V7.2ZM40.4 7.2V12H35.6V7.2H40.4ZM40.4 7.2L40.4 2.4H45.2V7.2L40.4 7.2Z"/>
</svg>
